;FLAVOR:Repetier
;TIME:5750
;MINX:-37.35
;MINY:-64.157
;MINZ:0.25
;MAXX:37.35
;MAXY:63.257
;MAXZ:9.05
;Generated with Cura_SteamEngine 4.11.0
M190 S50
M104 S220
M109 S220
M82 ;absolute extrusion mode
G28
M104 S[first_layer_temperature]
M190 S[first_layer_bed_temperature]
M109 S[first_layer_temperature]
; BEGINNING OF HEAD MOVEMENT WARNING TONES
M120 S4 P10
G4 P40
M120 S4 P10
G4 P40
M120 S4 P10
G4 P40
M120 S4 P10
G4 P40
M120 S4 P10
G4 P40
M117 KEEP HANDS AWAY
G4 S3
; END OF HEAD WARNING TONES
G1 Z15.0 F6000
G92 E0
G92 E0
G1 F4500 E-6.5
;LAYER_COUNT:45
;LAYER:0
M107
G1 F600 Z0.85
G0 F3600 X37.35 Y-47.506 Z0.85
;TYPE:SKIRT
G1 F600 Z0.25
G1 F4500 E0
G1 F1800 X37.349 Y48.073 E2.98028
G1 X37.324 Y49.48 E3.02416
G1 X37.283 Y50.197 E3.04656
G1 X37.229 Y50.652 E3.06084
G1 X37.072 Y51.644 E3.09216
G1 X36.959 Y52.198 E3.10979
G1 X36.916 Y52.371 E3.11535
G1 X36.743 Y53.003 E3.13578
G1 X36.475 Y53.813 E3.16239
G1 X36.278 Y54.323 E3.17943
G1 X36.034 Y54.885 E3.19854
G1 X35.857 Y55.259 E3.21144
G1 X35.621 Y55.714 E3.22742
G1 X35.297 Y56.278 E3.2477
G1 X35.223 Y56.395 E3.25202
G1 X34.59 Y57.348 E3.28769
G1 X34.227 Y57.828 E3.30646
G1 X33.894 Y58.23 E3.32274
G1 X33.536 Y58.634 E3.33957
G1 X33.35 Y58.825 E3.34788
G1 X32.632 Y59.523 E3.3791
G1 X32.19 Y59.917 E3.39757
G1 X31.804 Y60.22 E3.41287
G1 X30.945 Y60.842 E3.44594
G1 X30.39 Y61.197 E3.46648
G1 X29.877 Y61.49 E3.4849
G1 X29.026 Y61.918 E3.5146
G1 X28.559 Y62.125 E3.53053
G1 X28.009 Y62.343 E3.54898
G1 X27.146 Y62.634 E3.57738
G1 X26.626 Y62.78 E3.59422
G1 X26.318 Y62.852 E3.60408
G1 X25.369 Y63.045 E3.63428
G1 X24.841 Y63.129 E3.65095
G1 X24.632 Y63.154 E3.65751
G1 X23.978 Y63.213 E3.67799
G1 X23.673 Y63.229 E3.68751
G1 X22.099 Y63.257 E3.7366
G1 X-22.166 Y63.256 E5.11684
G1 X-23.573 Y63.231 E5.16072
G1 X-24.29 Y63.19 E5.18312
G1 X-24.456 Y63.173 E5.18832
G1 X-25.072 Y63.097 E5.20767
G1 X-25.637 Y63 E5.22555
G1 X-25.763 Y62.973 E5.22957
G1 X-26.727 Y62.749 E5.26043
G1 X-27.304 Y62.586 E5.27912
G1 X-27.906 Y62.381 E5.29895
G1 X-28.421 Y62.182 E5.31617
G1 X-28.984 Y61.938 E5.3353
G1 X-29.343 Y61.768 E5.34769
G1 X-29.803 Y61.53 E5.36383
G1 X-30.242 Y61.283 E5.37954
G1 X-30.766 Y60.961 E5.39872
G1 X-31.279 Y60.613 E5.41805
G1 X-31.396 Y60.527 E5.42258
G1 X-32.104 Y59.981 E5.45045
G1 X-32.574 Y59.585 E5.46962
G1 X-32.942 Y59.234 E5.48548
G1 X-33.615 Y58.541 E5.5156
G1 X-33.998 Y58.11 E5.53358
G1 X-34.104 Y57.981 E5.53878
G1 X-34.517 Y57.451 E5.55973
G1 X-34.838 Y56.994 E5.57715
G1 X-34.909 Y56.885 E5.5812
G1 X-35.428 Y56.052 E5.61181
G1 X-35.71 Y55.55 E5.62976
G1 X-35.788 Y55.397 E5.63511
G1 X-36.024 Y54.907 E5.65207
G1 X-36.215 Y54.473 E5.66686
G1 X-36.445 Y53.892 E5.68634
G1 X-36.727 Y53.054 E5.71391
G1 X-36.874 Y52.532 E5.73082
G1 X-37.022 Y51.91 E5.75076
G1 X-37.125 Y51.373 E5.76781
G1 X-37.273 Y50.235 E5.80359
G1 X-37.322 Y49.58 E5.82407
G1 X-37.35 Y48.006 E5.87316
G1 X-37.349 Y-47.573 E8.85344
G1 X-37.324 Y-48.98 E8.89732
G1 X-37.283 Y-49.697 E8.91972
G1 X-37.229 Y-50.152 E8.934
G1 X-37.072 Y-51.144 E8.96532
G1 X-36.957 Y-51.704 E8.98315
G1 X-36.916 Y-51.871 E8.98851
G1 X-36.743 Y-52.503 E9.00894
G1 X-36.475 Y-53.313 E9.03554
G1 X-36.278 Y-53.823 E9.05259
G1 X-36.03 Y-54.395 E9.07203
G1 X-35.857 Y-54.759 E9.0846
G1 X-35.621 Y-55.214 E9.10058
G1 X-35.297 Y-55.778 E9.12086
G1 X-35.223 Y-55.895 E9.12518
G1 X-34.664 Y-56.739 E9.15675
G1 X-34.35 Y-57.172 E9.17342
G1 X-34.227 Y-57.328 E9.17962
G1 X-33.894 Y-57.73 E9.19589
G1 X-33.536 Y-58.134 E9.21273
G1 X-33.352 Y-58.323 E9.22095
G1 X-32.635 Y-59.021 E9.25215
G1 X-32.196 Y-59.412 E9.27048
G1 X-31.804 Y-59.72 E9.28603
G1 X-30.945 Y-60.342 E9.3191
G1 X-30.39 Y-60.697 E9.33964
G1 X-29.877 Y-60.99 E9.35806
G1 X-29.026 Y-61.418 E9.38776
G1 X-28.561 Y-61.624 E9.40362
G1 X-28.004 Y-61.845 E9.42231
G1 X-27.146 Y-62.134 E9.45054
G1 X-26.626 Y-62.28 E9.46738
G1 X-26.318 Y-62.352 E9.47724
G1 X-25.369 Y-62.545 E9.50744
G1 X-24.841 Y-62.629 E9.52411
G1 X-24.632 Y-62.654 E9.53067
G1 X-23.969 Y-62.714 E9.55143
G1 X-23.211 Y-62.751 E9.5751
G1 X-23.139 Y-62.762 E9.57737
G1 X-21.609 Y-62.819 E9.62511
G1 X-18.892 Y-62.995 E9.71
G1 X-16.153 Y-63.251 E9.79578
G1 X-13.476 Y-63.578 E9.87988
G1 X-10.061 Y-64.104 E9.98762
G1 X-9.275 Y-64.156 E10.01218
G1 X8.851 Y-64.157 E10.57737
G1 X9.561 Y-64.146 E10.59951
G1 X10.079 Y-64.102 E10.61572
G1 X11.493 Y-63.881 E10.66035
G1 X11.871 Y-63.817 E10.6723
G1 X14.585 Y-63.438 E10.75775
G1 X17.283 Y-63.14 E10.84239
G1 X19.969 Y-62.919 E10.92643
G1 X22.518 Y-62.798 E11.006
G1 X22.694 Y-62.777 E11.01152
G1 X24.069 Y-62.707 E11.05445
G1 X24.456 Y-62.673 E11.06657
G1 X25.072 Y-62.597 E11.08592
G1 X25.637 Y-62.5 E11.1038
G1 X25.762 Y-62.473 E11.10778
G1 X26.723 Y-62.25 E11.13854
G1 X27.304 Y-62.086 E11.15737
G1 X27.905 Y-61.881 E11.17717
G1 X28.421 Y-61.682 E11.19441
G1 X28.984 Y-61.438 E11.21355
G1 X29.343 Y-61.268 E11.22593
G1 X29.803 Y-61.03 E11.24208
G1 X30.242 Y-60.783 E11.25779
G1 X30.766 Y-60.461 E11.27697
G1 X31.279 Y-60.113 E11.29629
G1 X31.395 Y-60.027 E11.3008
G1 X32.102 Y-59.482 E11.32863
G1 X32.572 Y-59.087 E11.34778
G1 X32.942 Y-58.733 E11.36374
G1 X33.614 Y-58.041 E11.39382
G1 X33.999 Y-57.61 E11.41184
G1 X34.1 Y-57.486 E11.41683
G1 X34.445 Y-57.046 E11.43426
G1 X34.781 Y-56.578 E11.45223
G1 X34.899 Y-56.4 E11.45889
G1 X35.427 Y-55.553 E11.49001
G1 X35.71 Y-55.05 E11.508
G1 X35.786 Y-54.9 E11.51325
G1 X36.055 Y-54.339 E11.53265
G1 X36.213 Y-53.979 E11.54491
G1 X36.44 Y-53.407 E11.56409
G1 X36.728 Y-52.552 E11.59223
G1 X36.875 Y-52.032 E11.60908
G1 X37.001 Y-51.506 E11.62594
G1 X37.103 Y-51.01 E11.64173
G1 X37.141 Y-50.761 E11.64958
G1 X37.272 Y-49.752 E11.68131
G1 X37.322 Y-49.08 E11.70232
G1 X37.35 Y-47.506 E11.75141
G0 F3600 X37.05 Y-47.506
G1 F1800 X37.049 Y48.067 E14.73151
G1 X37.021 Y49.588 E14.77894
G1 X36.984 Y50.174 E14.79725
G1 X36.933 Y50.605 E14.81078
G1 X36.776 Y51.597 E14.8421
G1 X36.666 Y52.133 E14.85916
G1 X36.627 Y52.292 E14.86427
G1 X36.456 Y52.916 E14.88444
G1 X36.191 Y53.715 E14.91069
G1 X36.003 Y54.204 E14.92703
G1 X35.802 Y54.67 E14.94285
G1 X35.591 Y55.12 E14.95835
G1 X35.355 Y55.575 E14.97433
G1 X35.041 Y56.122 E14.994
G1 X34.973 Y56.229 E14.99795
G1 X34.414 Y57.073 E15.02952
G1 X34.085 Y57.525 E15.04695
G1 X33.996 Y57.637 E15.05141
G1 X33.663 Y58.039 E15.06769
G1 X33.319 Y58.427 E15.08386
G1 X33.141 Y58.61 E15.09182
G1 X32.423 Y59.308 E15.12304
G1 X31.994 Y59.689 E15.14093
G1 X31.627 Y59.977 E15.15548
G1 X30.776 Y60.594 E15.18825
G1 X30.241 Y60.937 E15.20807
G1 X29.735 Y61.226 E15.22624
G1 X28.896 Y61.648 E15.25552
G1 X27.996 Y62.026 E15.28596
G1 X27.487 Y62.211 E15.30285
G1 X26.961 Y62.376 E15.32004
G1 X26.377 Y62.532 E15.33889
G1 X26.259 Y62.558 E15.34265
G1 X25.31 Y62.751 E15.37285
G1 X24.796 Y62.832 E15.38907
G1 X24.604 Y62.855 E15.3951
G1 X23.957 Y62.914 E15.41536
G1 X23.668 Y62.929 E15.42439
G1 X22.099 Y62.957 E15.47332
G1 X-22.16 Y62.956 E16.85337
G1 X-23.681 Y62.928 E16.90081
G1 X-24.267 Y62.891 E16.91912
G1 X-24.42 Y62.876 E16.92391
G1 X-24.928 Y62.814 E16.93987
G1 X-25.579 Y62.705 E16.96045
G1 X-25.695 Y62.68 E16.96415
G1 X-26.659 Y62.456 E16.99501
G1 X-27.217 Y62.299 E17.01308
G1 X-27.808 Y62.097 E17.03256
G1 X-28.303 Y61.906 E17.0491
G1 X-28.858 Y61.666 E17.06796
G1 X-29.205 Y61.501 E17.07994
G1 X-29.767 Y61.209 E17.09969
G1 X-30.086 Y61.027 E17.11114
G1 X-30.602 Y60.71 E17.13002
G1 X-31.105 Y60.369 E17.14897
G1 X-31.213 Y60.289 E17.15316
G1 X-31.921 Y59.743 E17.18104
G1 X-32.376 Y59.359 E17.19961
G1 X-32.727 Y59.025 E17.21471
G1 X-33.4 Y58.332 E17.24483
G1 X-33.771 Y57.915 E17.26224
G1 X-33.867 Y57.797 E17.26698
G1 X-34.276 Y57.272 E17.28773
G1 X-34.589 Y56.827 E17.3047
G1 X-34.654 Y56.726 E17.30844
G1 X-35.173 Y55.893 E17.33905
G1 X-35.446 Y55.407 E17.35643
G1 X-35.517 Y55.267 E17.36132
G1 X-35.798 Y54.68 E17.38161
G1 X-35.937 Y54.362 E17.39244
G1 X-36.164 Y53.789 E17.41165
G1 X-36.441 Y52.963 E17.43882
G1 X-36.583 Y52.462 E17.45506
G1 X-36.729 Y51.847 E17.47477
G1 X-36.828 Y51.325 E17.49133
G1 X-36.844 Y51.22 E17.49465
G1 X-36.976 Y50.197 E17.52681
G1 X-37.022 Y49.575 E17.54626
G1 X-37.05 Y48.006 E17.59519
G1 X-37.049 Y-47.567 E20.57528
G1 X-37.021 Y-49.088 E20.62272
G1 X-36.984 Y-49.674 E20.64103
G1 X-36.933 Y-50.105 E20.65456
G1 X-36.776 Y-51.097 E20.68588
G1 X-36.664 Y-51.639 E20.70314
G1 X-36.627 Y-51.792 E20.70804
G1 X-36.456 Y-52.416 E20.72822
G1 X-36.191 Y-53.215 E20.75447
G1 X-36.003 Y-53.704 E20.7708
G1 X-35.758 Y-54.268 E20.78998
G1 X-35.591 Y-54.62 E20.80213
G1 X-35.355 Y-55.075 E20.81811
G1 X-35.041 Y-55.622 E20.83777
G1 X-34.973 Y-55.729 E20.84173
G1 X-34.414 Y-56.573 E20.87329
G1 X-34.109 Y-56.993 E20.88948
G1 X-33.996 Y-57.137 E20.89519
G1 X-33.663 Y-57.539 E20.91146
G1 X-33.319 Y-57.927 E20.92763
G1 X-33.143 Y-58.108 E20.9355
G1 X-32.426 Y-58.806 E20.96671
G1 X-32 Y-59.185 E20.98448
G1 X-31.627 Y-59.477 E20.99926
G1 X-30.776 Y-60.094 E21.03203
G1 X-30.241 Y-60.437 E21.05185
G1 X-29.735 Y-60.726 E21.07002
G1 X-28.896 Y-61.148 E21.0993
G1 X-27.996 Y-61.527 E21.12975
G1 X-27.487 Y-61.711 E21.14663
G1 X-26.961 Y-61.876 E21.16382
G1 X-26.377 Y-62.032 E21.18267
G1 X-26.259 Y-62.058 E21.18643
G1 X-25.31 Y-62.251 E21.21663
G1 X-24.796 Y-62.332 E21.23285
G1 X-24.604 Y-62.355 E21.23888
G1 X-23.949 Y-62.415 E21.25939
G1 X-23.236 Y-62.45 E21.28165
G1 X-23.128 Y-62.463 E21.28504
G1 X-21.577 Y-62.52 E21.33344
G1 X-18.849 Y-62.697 E21.41868
G1 X-16.157 Y-62.949 E21.50299
G1 X-13.423 Y-63.283 E21.58887
G1 X-10.015 Y-63.808 E21.69639
G1 X-9.267 Y-63.856 E21.71976
G1 X8.846 Y-63.857 E22.28455
G1 X9.556 Y-63.846 E22.30669
G1 X10.033 Y-63.805 E22.32162
G1 X11.443 Y-63.586 E22.36611
G1 X11.846 Y-63.518 E22.37886
G1 X14.548 Y-63.141 E22.46393
G1 X17.262 Y-62.84 E22.54907
G1 X19.958 Y-62.618 E22.63342
G1 X22.504 Y-62.498 E22.7129
G1 X22.663 Y-62.478 E22.71789
G1 X24.046 Y-62.408 E22.76107
G1 X24.42 Y-62.376 E22.77278
G1 X24.928 Y-62.314 E22.78874
G1 X25.579 Y-62.205 E22.80932
G1 X25.694 Y-62.181 E22.81298
G1 X26.655 Y-61.958 E22.84374
G1 X27.217 Y-61.799 E22.86195
G1 X27.806 Y-61.597 E22.88137
G1 X28.303 Y-61.406 E22.89797
G1 X28.858 Y-61.166 E22.91683
G1 X29.205 Y-61.001 E22.92881
G1 X29.767 Y-60.709 E22.94855
G1 X30.086 Y-60.527 E22.96001
G1 X30.602 Y-60.21 E22.97889
G1 X31.105 Y-59.869 E22.99784
G1 X31.212 Y-59.789 E23.002
G1 X31.919 Y-59.244 E23.02984
G1 X32.374 Y-58.861 E23.04838
G1 X32.727 Y-58.524 E23.0636
G1 X33.399 Y-57.832 E23.09368
G1 X33.771 Y-57.415 E23.1111
G1 X33.864 Y-57.301 E23.11569
G1 X34.209 Y-56.861 E23.13313
G1 X34.536 Y-56.405 E23.15062
G1 X34.645 Y-56.241 E23.15676
G1 X35.173 Y-55.394 E23.18788
G1 X35.446 Y-54.907 E23.20529
G1 X35.516 Y-54.77 E23.21009
G1 X35.738 Y-54.31 E23.22602
G1 X35.934 Y-53.867 E23.24112
G1 X36.158 Y-53.304 E23.26002
G1 X36.442 Y-52.461 E23.28775
G1 X36.583 Y-51.962 E23.30392
G1 X36.729 Y-51.347 E23.32363
G1 X36.828 Y-50.825 E23.3402
G1 X36.843 Y-50.722 E23.34344
G1 X36.974 Y-49.713 E23.37517
G1 X37.022 Y-49.075 E23.39512
G1 X37.05 Y-47.506 E23.44405
G0 F3600 X36.75 Y-47.506
G1 F1800 X36.75 Y48.062 E26.42399
G1 X36.725 Y49.469 E26.46787
G1 X36.685 Y50.151 E26.48917
G1 X36.636 Y50.558 E26.50196
G1 X36.479 Y51.55 E26.53327
G1 X36.373 Y52.068 E26.54976
G1 X36.337 Y52.214 E26.55445
G1 X36.169 Y52.829 E26.57433
G1 X35.908 Y53.617 E26.60021
G1 X35.727 Y54.086 E26.61589
G1 X35.49 Y54.632 E26.63445
G1 X35.324 Y54.982 E26.64653
G1 X35.088 Y55.437 E26.66251
G1 X34.785 Y55.966 E26.68152
G1 X34.723 Y56.063 E26.68511
G1 X34.164 Y56.907 E26.71667
G1 X33.846 Y57.343 E26.7335
G1 X33.765 Y57.445 E26.73756
G1 X33.37 Y57.92 E26.75682
G1 X33.01 Y58.316 E26.77351
G1 X32.932 Y58.395 E26.77697
G1 X32.214 Y59.093 E26.8082
G1 X31.799 Y59.462 E26.82551
G1 X31.451 Y59.735 E26.8393
G1 X30.68 Y60.295 E26.86902
G1 X30.211 Y60.605 E26.88655
G1 X29.673 Y60.917 E26.90594
G1 X29.21 Y61.164 E26.9223
G1 X28.683 Y61.416 E26.94052
G1 X27.885 Y61.747 E26.96746
G1 X27.396 Y61.925 E26.98368
G1 X26.879 Y62.087 E27.00058
G1 X26.307 Y62.24 E27.01904
G1 X26.199 Y62.264 E27.02249
G1 X25.25 Y62.457 E27.05269
G1 X24.752 Y62.535 E27.0684
G1 X24.577 Y62.557 E27.0739
G1 X23.937 Y62.615 E27.09394
G1 X23.662 Y62.629 E27.10253
G1 X22.099 Y62.657 E27.15127
G1 X-22.155 Y62.657 E28.53117
G1 X-23.562 Y62.632 E28.57505
G1 X-24.244 Y62.592 E28.59635
G1 X-24.384 Y62.578 E28.60074
G1 X-24.892 Y62.516 E28.6167
G1 X-25.521 Y62.411 E28.63658
G1 X-25.627 Y62.388 E28.63996
G1 X-26.591 Y62.164 E28.67082
G1 X-27.13 Y62.012 E28.68829
G1 X-27.71 Y61.814 E28.7074
G1 X-28.184 Y61.631 E28.72324
G1 X-28.731 Y61.394 E28.74183
G1 X-29.068 Y61.235 E28.75345
G1 X-29.528 Y60.997 E28.7696
G1 X-29.93 Y60.771 E28.78398
G1 X-30.439 Y60.458 E28.80261
G1 X-30.931 Y60.124 E28.82115
G1 X-31.03 Y60.051 E28.82499
G1 X-31.738 Y59.505 E28.85286
G1 X-32.178 Y59.134 E28.87081
G1 X-32.512 Y58.816 E28.88519
G1 X-33.185 Y58.123 E28.91531
G1 X-33.543 Y57.72 E28.93212
G1 X-33.631 Y57.612 E28.93646
G1 X-34.035 Y57.094 E28.95695
G1 X-34.34 Y56.66 E28.97349
G1 X-34.4 Y56.568 E28.97691
G1 X-34.919 Y55.735 E29.00752
G1 X-35.182 Y55.265 E29.02431
G1 X-35.247 Y55.137 E29.02879
G1 X-35.483 Y54.647 E29.04575
G1 X-35.658 Y54.251 E29.05924
G1 X-35.882 Y53.686 E29.0782
G1 X-36.155 Y52.872 E29.10497
G1 X-36.291 Y52.392 E29.12052
G1 X-36.436 Y51.785 E29.13998
G1 X-36.532 Y51.277 E29.1561
G1 X-36.546 Y51.181 E29.15913
G1 X-36.678 Y50.158 E29.19129
G1 X-36.722 Y49.569 E29.20971
G1 X-36.75 Y48.006 E29.25845
G1 X-36.75 Y-47.562 E32.2384
G1 X-36.725 Y-48.969 E32.28227
G1 X-36.685 Y-49.651 E32.30358
G1 X-36.636 Y-50.058 E32.31636
G1 X-36.479 Y-51.05 E32.34768
G1 X-36.372 Y-51.574 E32.36435
G1 X-36.337 Y-51.714 E32.36885
G1 X-36.169 Y-52.329 E32.38873
G1 X-35.908 Y-53.117 E32.41461
G1 X-35.727 Y-53.585 E32.43026
G1 X-35.486 Y-54.142 E32.44918
G1 X-35.324 Y-54.482 E32.46093
G1 X-35.088 Y-54.937 E32.47691
G1 X-34.785 Y-55.466 E32.49592
G1 X-34.723 Y-55.563 E32.49951
G1 X-34.164 Y-56.407 E32.53108
G1 X-33.868 Y-56.814 E32.54677
G1 X-33.765 Y-56.945 E32.55196
G1 X-33.37 Y-57.42 E32.57123
G1 X-33.01 Y-57.816 E32.58791
G1 X-32.216 Y-58.591 E32.62251
G1 X-31.805 Y-58.958 E32.63969
G1 X-31.451 Y-59.235 E32.65371
G1 X-30.68 Y-59.795 E32.68342
G1 X-30.211 Y-60.105 E32.70095
G1 X-29.673 Y-60.417 E32.72034
G1 X-29.21 Y-60.664 E32.73671
G1 X-28.683 Y-60.916 E32.75492
G1 X-27.885 Y-61.248 E32.78187
G1 X-27.396 Y-61.425 E32.79809
G1 X-26.879 Y-61.587 E32.81498
G1 X-26.307 Y-61.74 E32.83344
G1 X-26.199 Y-61.764 E32.83689
G1 X-25.25 Y-61.957 E32.86709
G1 X-24.752 Y-62.035 E32.88281
G1 X-24.577 Y-62.057 E32.88831
G1 X-24.014 Y-62.109 E32.90594
G1 X-23.28 Y-62.149 E32.92886
G1 X-23.117 Y-62.163 E32.93396
G1 X-21.547 Y-62.221 E32.98295
G1 X-18.836 Y-62.397 E33.06766
G1 X-16.126 Y-62.65 E33.15253
G1 X-13.379 Y-62.986 E33.23882
G1 X-9.97 Y-63.511 E33.34637
G1 X-9.259 Y-63.556 E33.36859
G1 X8.842 Y-63.557 E33.933
G1 X9.552 Y-63.546 E33.95514
G1 X9.987 Y-63.509 E33.96875
G1 X11.393 Y-63.29 E34.01312
G1 X11.792 Y-63.222 E34.02575
G1 X14.506 Y-62.844 E34.11119
G1 X17.241 Y-62.541 E34.19699
G1 X19.946 Y-62.318 E34.28162
G1 X22.49 Y-62.198 E34.36104
G1 X22.642 Y-62.179 E34.36581
G1 X24.023 Y-62.109 E34.40893
G1 X24.384 Y-62.078 E34.42023
G1 X24.892 Y-62.016 E34.43619
G1 X25.521 Y-61.911 E34.45607
G1 X26.587 Y-61.665 E34.49018
G1 X27.13 Y-61.512 E34.50777
G1 X27.708 Y-61.314 E34.52682
G1 X28.184 Y-61.131 E34.54273
G1 X28.731 Y-60.894 E34.56131
G1 X29.068 Y-60.735 E34.57293
G1 X29.528 Y-60.497 E34.58908
G1 X29.93 Y-60.271 E34.60346
G1 X30.439 Y-59.958 E34.62209
G1 X30.931 Y-59.624 E34.64064
G1 X31.029 Y-59.552 E34.64443
G1 X31.736 Y-59.007 E34.67226
G1 X32.176 Y-58.636 E34.69021
G1 X32.512 Y-58.315 E34.7047
G1 X33.256 Y-57.547 E34.73804
G1 X33.628 Y-57.116 E34.75579
G1 X33.973 Y-56.676 E34.77323
G1 X34.291 Y-56.232 E34.79026
G1 X34.39 Y-56.082 E34.79586
G1 X34.918 Y-55.235 E34.82698
G1 X35.182 Y-54.765 E34.84379
G1 X35.246 Y-54.639 E34.8482
G1 X35.468 Y-54.179 E34.86413
G1 X35.656 Y-53.756 E34.87856
G1 X35.877 Y-53.2 E34.89722
G1 X36.156 Y-52.37 E34.92452
G1 X36.291 Y-51.892 E34.94001
G1 X36.436 Y-51.285 E34.95947
G1 X36.532 Y-50.777 E34.97559
G1 X36.546 Y-50.684 E34.97852
G1 X36.677 Y-49.675 E35.01025
G1 X36.722 Y-49.069 E35.02919
